packages/core/src/svgs/pokt.svg

<svg width="24" height="24" viewBox="0 0 24 24" fill="none" xmlns="http://www.w3.org/2000/svg">
<g clip-path="url(#clip0_31_16176)">
<path d="M0 0H24V24H0V0Z" fill="url(#paint0_linear_31_16176)"/>
<path d="M8.57154 11.52C8.57154 8.67432 11.1215 8.00575 12.8573 8.15146V5.19432C11.164 4.97731 9.45064 5.39971 8.05228 6.37893C6.65392 7.35815 5.6711 8.82376 5.296 10.4892C4.92091 12.1546 5.18052 13.9 6.02407 15.3842C6.86762 16.8683 8.23444 17.9845 9.85726 18.5143V15.9557C9.85611 15.7729 9.89141 15.5917 9.96111 15.4227C10.0308 15.2536 10.1335 15.1002 10.2632 14.9713C10.3929 14.8424 10.5469 14.7407 10.7164 14.672C10.8859 14.6034 11.0673 14.5692 11.2501 14.5715H12.0344C13.9158 14.5715 14.143 12.8015 14.143 12.48C14.143 12.2615 14.053 12.06 13.9501 11.8372C13.8987 11.73 13.8473 11.6186 13.8044 11.4943C13.6973 11.1943 13.8473 10.92 13.9415 10.8215L14.6315 10.2857C15.1208 10.9155 15.3997 11.6831 15.4287 12.48C15.4287 15.3257 12.8787 15.9943 11.143 15.8486V18.8058C12.8363 19.0228 14.5496 18.6004 15.948 17.6211C17.3463 16.6419 18.3291 15.1763 18.7042 13.5109C19.0793 11.8455 18.8197 10.1 17.9762 8.61589C17.1326 7.13174 15.7658 6.01561 14.143 5.48575V8.04432C14.1441 8.22715 14.1088 8.40838 14.0391 8.57741C13.9694 8.74645 13.8667 8.89989 13.7371 9.02877C13.6074 9.15766 13.4533 9.2594 13.2838 9.32805C13.1144 9.3967 12.9329 9.43089 12.7501 9.42861H11.9658C10.0844 9.42861 9.85726 11.1986 9.85726 11.52C9.85726 11.7386 9.94726 11.94 10.0501 12.1629C10.1015 12.27 10.153 12.3815 10.1958 12.5057C10.303 12.8057 10.153 13.08 10.0587 13.1786L9.36869 13.7143C8.87939 13.0846 8.60052 12.317 8.57154 11.52Z" fill="#1E8AED"/>
</g>
<defs>
<linearGradient id="paint0_linear_31_16176" x1="4.46571" y1="4.16143" x2="29.2071" y2="32.58" gradientUnits="userSpaceOnUse">
<stop stop-color="#1A1E21"/>
<stop offset="1" stop-color="#06060A"/>
</linearGradient>
<clipPath id="clip0_31_16176">
<rect width="24" height="24" fill="white"/>
</clipPath>
</defs>
</svg>

<svg xmlns="http://www.w3.org/2000/svg" width="24" height="24" fill="none" viewBox="0 0 24 24"><g clip-path="url(#a)"><path fill="url(#b)" d="M0 0h24v24H0z"/><path fill="#1E8AED" d="M8.572 11.52c0-2.846 2.55-3.514 4.285-3.369V5.194a6.857 6.857 0 0 0-3 13.32v-2.558a1.375 1.375 0 0 1 1.393-1.384h.784c1.882 0 2.109-1.77 2.109-2.092 0-.219-.09-.42-.193-.643a3 3 0 0 1-.146-.343.69.69 0 0 1 .137-.672l.69-.536c.49.63.769 1.397.798 2.194 0 2.846-2.55 3.514-4.286 3.369v2.957a6.857 6.857 0 0 0 3-13.32v2.558A1.377 1.377 0 0 1 12.75 9.43h-.784c-1.882 0-2.109 1.77-2.109 2.091 0 .219.09.42.193.643.051.107.103.219.146.343a.69.69 0 0 1-.137.673l-.69.535a3.8 3.8 0 0 1-.797-2.194"/></g><defs><linearGradient id="b" x1="4.466" x2="29.207" y1="4.161" y2="32.58" gradientUnits="userSpaceOnUse"><stop stop-color="#1A1E21"/><stop offset="1" stop-color="#06060A"/></linearGradient><clipPath id="a"><path fill="#fff" d="M0 0h24v24H0z"/></clipPath></defs></svg>
